X:1

T:Whinham's Reel

B:Northumbrian Pipers' Tune Book volume 1

M:2/4

L:1/16

K:G

D2 |GABA G2D2|E2G2 D4  |E2G2 E2G2|B2A2 A2B2|\

GABA G2E2|E2G2 D4  |E2G2 D2d2|B2G2 G2 :|

(3def|g2G2 B2g2|f2G2 c2e2|d2D2 G2B2|cBAB cdef|\

g2G2 B2g2|f2G2 c2e2|d2D2 F2d2|B2G2 G2 :|

                       

WHINNY HILLS, THE. See “Whinny Hills of Leitrim.”

                       

WHINNY HILLS OF LEITRIM [1], THE. AKA ‑ "Leitrim Town." Irish, Slip Jig. D Major. Standard tuning (fiddle). AAB (Boys of the Lough, Mulvihill, Tubridy): AABB’ (Mallinson). The tune was first recorded in 1928 by Leitrim flute player John McKenna (1880-1947) under the title “Leitrim Town.” McKenna recorded a number of tunes during his carear that referenced his home county. Source: flute player John McKenna (County Leitrim), from an old 78 RPM record [Boys of the Lough]. Boys of the Lough, 1977; p. 24. Breathnach (Folk Music and Dances of Ireland), 1971; 11. Bulmer & Sharpley (Music from Ireland), vol. 2, No. 54. Mallinson (Enduring), 1995; No. 88, p. 37. Mulvihill (1st Collection), 1986; No. 5, p. 107. Tubridy (Irish Traditional Music, Book Two), 1999; p. 42. Front Hall 018, How To Change a Flat Tire ‑ "Traditional Music of Ireland and Shetland," 1978. Trailer LER 2090, Boys of the Lough ‑ "Second Album."

